icons/svg/24x24/device monitor and mobile/outline.svg

<svg xmlns="http://www.w3.org/2000/svg" width="24" height="24" viewBox="0 0 24 24">
  <path fill-rule="evenodd" d="M6.1309,15.5645 C8.1169,15.8535 10.0919,16.0005 11.9999,16.0005 L11.9999,17.0005 L11.9999,18.0005 L11.9999,19.0005 L11.9999,21.0005 L6.9999,21.0005 C6.4469,21.0005 5.9999,20.5525 5.9999,20.0005 C5.9999,19.4475 6.4469,19.0005 6.9999,19.0005 L8.9999,19.0005 L8.9999,17.8885 C7.9549,17.8115 6.9009,17.6975 5.8429,17.5435 C3.6519,17.2255 1.9999,15.3115 1.9999,13.0905 L1.9999,7.9095 C1.9999,5.6885 3.6519,3.7745 5.8439,3.4575 C7.9239,3.1535 9.9619,3.0005 11.9999,3.0005 C14.0379,3.0005 16.0759,3.1535 18.1569,3.4575 C20.3479,3.7745 21.9999,5.7275 21.9999,8.0005 L19.9999,8.0005 C19.9999,6.7355 19.0649,5.6095 17.8689,5.4355 C13.8969,4.8575 10.1029,4.8575 6.1319,5.4355 C4.9159,5.6125 3.9999,6.6745 3.9999,7.9095 L3.9999,13.0905 C3.9999,14.3255 4.9159,15.3875 6.1309,15.5645 L6.1309,15.5645 Z M15.9999,20.0005 L15.9999,12.0005 L19.9999,12.0005 L20.0019,20.0005 L15.9999,20.0005 Z M19.9999,10.0005 L15.9999,10.0005 C14.8979,10.0005 13.9999,10.8975 13.9999,12.0005 L13.9999,20.0005 C13.9999,21.1025 14.8979,22.0005 15.9999,22.0005 L19.9999,22.0005 C21.1029,22.0005 21.9999,21.1025 21.9999,20.0005 L21.9999,12.0005 C21.9999,10.8975 21.1029,10.0005 19.9999,10.0005 L19.9999,10.0005 Z"/>
</svg>

<svg width="24" height="24" fill="none" xmlns="http://www.w3.org/2000/svg">
  <path fill-rule="evenodd" clip-rule="evenodd" d="M6.13 15.565c1.987.289 3.962.435 5.87.435v5H7a1 1 0 110-2h2v-1.11a44.76 44.76 0 01-3.157-.345C3.652 17.225 2 15.312 2 13.09V7.91c0-2.222 1.652-4.136 3.844-4.453A42.385 42.385 0 0112 3c2.038 0 4.076.153 6.157.457C20.347 3.774 22 5.727 22 8h-2c0-1.265-.935-2.39-2.131-2.565a39.939 39.939 0 00-11.737 0A2.508 2.508 0 004 7.91v5.182c0 1.235.916 2.296 2.13 2.474zM16 20v-8h4l.002 8H16zm4-10h-4c-1.102 0-2 .898-2 2v8c0 1.102.898 2 2 2h4c1.103 0 2-.898 2-2v-8c0-1.102-.897-2-2-2z" fill="#000"/>
</svg>
